X:1545
T:Mary Lee
O:ireland
B:Joyce, P. W.; "Old Irish Folk Music and Songs"
R:song air/jig
L:1/8
M:6/8
K:F
d3 c3|B3 A3|GAG B2 c|dBG G3|
d3 c3|B3 A2 G|F3 f2 d|cAF F3||
GFD B2 c|dBG GFD|GAG B2 c|dBG G2 A|
GFD B2 c|dBG GFD|F3 f2 d|cAF F3||
